X: 9985
T: Devil's Elbow, The
R: reel
M: 4/4
K: Dmajor
|:z|d2 cd Bd A2|d2 cd BE E2|d2 cd BdAF|GBAG FD D:|
|:e|fdAF GBeG|FAdf eE E2|fdAF GBed|cAag fd d:|

